cfmoto/public/img/icons/home.svg

<svg width="23" height="23" viewBox="0 0 23 23" fill="none" xmlns="http://www.w3.org/2000/svg">
<path d="M22.4259 9.95899C22.4252 9.95846 22.4247 9.95776 22.4241 9.95723L13.0419 0.575387C12.642 0.175301 12.1103 -0.0449219 11.5448 -0.0449219C10.9792 -0.0449219 10.4475 0.175301 10.0474 0.575387L0.670145 9.9525C0.666986 9.95566 0.663652 9.95899 0.660669 9.96215C-0.16056 10.7881 -0.159156 12.1282 0.664705 12.9521C1.0411 13.3287 1.53805 13.5466 2.06957 13.5696C2.09133 13.5717 2.11309 13.5728 2.13502 13.5728H2.50879V20.477C2.50879 21.8435 3.62061 22.9551 4.98704 22.9551H8.65766C9.02984 22.9551 9.33148 22.6533 9.33148 22.2813V16.8682C9.33148 16.2447 9.83879 15.7376 10.4623 15.7376H12.6273C13.2508 15.7376 13.7579 16.2447 13.7579 16.8682V22.2813C13.7579 22.6533 14.0595 22.9551 14.4317 22.9551H18.1023C19.4689 22.9551 20.5806 21.8435 20.5806 20.477V13.5728H20.9273C21.4927 13.5728 22.0244 13.3525 22.4247 12.9523C23.2494 12.1272 23.2497 10.7846 22.4259 9.95899ZM21.4716 11.9994C21.3262 12.1449 21.1328 12.2251 20.9273 12.2251H19.9067C19.5346 12.2251 19.2329 12.5267 19.2329 12.8989V20.477C19.2329 21.1003 18.7258 21.6075 18.1023 21.6075H15.1055V16.8682C15.1055 15.5018 13.9939 14.3899 12.6273 14.3899H10.4623C9.09564 14.3899 7.98383 15.5018 7.98383 16.8682V21.6075H4.98704C4.36375 21.6075 3.85645 21.1003 3.85645 20.477V12.8989C3.85645 12.5267 3.5548 12.2251 3.18262 12.2251H2.17959C2.16906 12.2244 2.15871 12.2239 2.14801 12.2237C1.94726 12.2202 1.75898 12.1405 1.61789 11.9993C1.31783 11.6992 1.31783 11.2108 1.61789 10.9106C1.61807 10.9106 1.61807 10.9104 1.61824 10.9102L1.61877 10.9097L11.0006 1.52822C11.1459 1.38275 11.3391 1.30274 11.5448 1.30274C11.7503 1.30274 11.9435 1.38275 12.0889 1.52822L21.4687 10.9078C21.4701 10.9092 21.4716 10.9106 21.473 10.912C21.7715 11.2126 21.771 11.6999 21.4716 11.9994Z" fill="white"/>
</svg>

<svg width="23" height="23" fill="none" xmlns="http://www.w3.org/2000/svg"><path d="M22.426 9.959l-.002-.002L13.042.575c-.4-.4-.932-.62-1.497-.62-.566 0-1.098.22-1.498.62L.67 9.953l-.01.01a2.12 2.12 0 00.005 2.99 2.105 2.105 0 001.47.62h.374v6.904a2.481 2.481 0 002.478 2.478h3.67a.674.674 0 00.674-.674v-5.413c0-.623.508-1.13 1.131-1.13h2.165c.624 0 1.13.507 1.13 1.13v5.413c0 .372.303.674.675.674h3.67a2.48 2.48 0 002.479-2.478v-6.904h.346c.566 0 1.097-.22 1.498-.62a2.12 2.12 0 000-2.994zm-.954 2.04a.765.765 0 01-.545.226h-1.02a.674.674 0 00-.674.674v7.578c0 .623-.507 1.13-1.13 1.13h-2.998v-4.739a2.481 2.481 0 00-2.478-2.478h-2.165a2.481 2.481 0 00-2.478 2.478v4.74H4.987c-.623 0-1.13-.508-1.13-1.131v-7.578a.674.674 0 00-.674-.674H2.18A.764.764 0 011.618 12a.77.77 0 010-1.088v-.001l9.383-9.382a.764.764 0 01.544-.225c.205 0 .399.08.544.225l9.38 9.38.004.004A.77.77 0 0121.472 12z" fill="#fff"/></svg>
